X: 1
T: MAID MARIAN -- HORNPIPE
B: Ryan's Mammoth Collection of Fiddle Tunes
R: hornpipe
M: 2/4
L: 1/16
Z: Contributed 20000522192422 by John Chambers jchambers:casc.com
K: D
uA2 \
| A^GAB ABcd | edcB A2A2 | dAFA dAFD | EDEF E2E2 |
| A^GAB ABcd | edcB AGFE | FAdf EAce | d2f2d2 :|
|: vcd \
| edcd egfe | fede fagf | gbbg faaf | edcB A2a2 |
| bggb + affa | gfed cBAG | FAdf EAce | d2f2d2 :|
